packages/components/src/components/icon/appstore/ic-appstore-option-trade-type.svg

<svg width="32" height="32" viewBox="0 0 32 32" fill="none" xmlns="http://www.w3.org/2000/svg">
<path opacity="0.32" fill-rule="evenodd" clip-rule="evenodd" d="M26 0C29.3137 0 32 2.68627 32 6V26C32 29.3137 29.3137 32 26 32H6C2.68627 32 0 29.3137 0 26V6C0 2.68627 2.68627 0 6 0H26Z" fill="white"/>
<path d="M11 15C11.5128 15 11.9355 15.386 11.9933 15.8834L12 16V22.585L14.2929 20.2929C14.6534 19.9324 15.2206 19.9047 15.6129 20.2097L15.7071 20.2929C16.0676 20.6534 16.0953 21.2206 15.7903 21.6129L15.7071 21.7071L11.7071 25.7071C11.6786 25.7356 11.6485 25.7623 11.6167 25.7872L11.7071 25.7071C11.6717 25.7425 11.6343 25.7747 11.5953 25.8037C11.5711 25.8215 11.5463 25.8383 11.5207 25.8539C11.5086 25.8614 11.4964 25.8685 11.4841 25.8753C11.4643 25.8862 11.4439 25.8966 11.4231 25.9063C11.4061 25.9143 11.3888 25.9218 11.3713 25.9288C11.3516 25.9367 11.3318 25.9439 11.3117 25.9505C11.2969 25.9553 11.2815 25.9599 11.266 25.9642C11.2444 25.9702 11.2227 25.9754 11.2008 25.9798C11.1834 25.9833 11.1659 25.9864 11.1485 25.989C11.1281 25.9921 11.1071 25.9946 11.0858 25.9964C11.0679 25.9979 11.0506 25.9989 11.0332 25.9995C11.0224 25.9998 11.0112 26 11 26L10.9677 25.9995C10.9497 25.9989 10.9317 25.9978 10.9138 25.9963L11 26C10.9494 26 10.8996 25.9962 10.851 25.989C10.8341 25.9864 10.8166 25.9833 10.7993 25.9798C10.7773 25.9754 10.7556 25.9702 10.7342 25.9643C10.7185 25.9599 10.7031 25.9553 10.6879 25.9503C10.6682 25.9439 10.6484 25.9367 10.6289 25.9289C10.6112 25.9218 10.5939 25.9143 10.5768 25.9063C10.5561 25.8966 10.5357 25.8862 10.5157 25.8751C10.5036 25.8685 10.4914 25.8614 10.4793 25.854C10.4537 25.8383 10.4289 25.8215 10.4048 25.8037C10.3988 25.7993 10.3929 25.7948 10.3871 25.7903C10.3515 25.7623 10.3214 25.7356 10.2929 25.7071L6.29289 21.7071C5.90237 21.3166 5.90237 20.6834 6.29289 20.2929C6.65338 19.9324 7.22061 19.9047 7.6129 20.2097L7.70711 20.2929L10 22.585V16C10 15.4477 10.4477 15 11 15Z" fill="white"/>
<path d="M21 17C21.5128 17 21.9355 16.614 21.9933 16.1166L22 16V9.415L24.2929 11.7071C24.6534 12.0676 25.2206 12.0953 25.6129 11.7903L25.7071 11.7071C26.0676 11.3466 26.0953 10.7794 25.7903 10.3871L25.7071 10.2929L21.7071 6.29289C21.6786 6.26443 21.6485 6.23767 21.6168 6.21279L21.7071 6.29289C21.6717 6.2575 21.6343 6.22531 21.5953 6.19633C21.5711 6.17849 21.5463 6.16172 21.5207 6.14607C21.5086 6.13861 21.4964 6.1315 21.4841 6.12467C21.4643 6.11379 21.4439 6.10338 21.4231 6.09365C21.4061 6.08568 21.3888 6.0782 21.3713 6.07123C21.3516 6.06332 21.3318 6.05612 21.3117 6.04955C21.2969 6.04473 21.2815 6.0401 21.266 6.03584C21.2444 6.02983 21.2227 6.02464 21.2008 6.02016C21.1834 6.0167 21.1659 6.01363 21.1485 6.01102C21.1281 6.00791 21.1071 6.00543 21.0858 6.00363C21.0679 6.00214 21.0506 6.00112 21.0332 6.00055C21.0224 6.00019 21.0112 6 21 6L20.9677 6.00052C20.9497 6.00109 20.9317 6.00216 20.9138 6.0037L21 6C20.9494 6 20.8996 6.00376 20.851 6.01102C20.8341 6.01363 20.8166 6.0167 20.7993 6.02024C20.7773 6.02464 20.7556 6.02983 20.7342 6.03572C20.7185 6.0401 20.7031 6.04473 20.6879 6.04974C20.6682 6.05612 20.6484 6.06332 20.6289 6.0711C20.6112 6.0782 20.5939 6.08568 20.5768 6.09367C20.5561 6.10338 20.5357 6.11379 20.5157 6.12488C20.5036 6.1315 20.4914 6.13861 20.4793 6.146C20.4537 6.16172 20.4289 6.17849 20.4048 6.19631C20.3988 6.20072 20.3929 6.20518 20.3871 6.20971C20.3515 6.23767 20.3214 6.26443 20.2929 6.29289L16.2929 10.2929C15.9024 10.6834 15.9024 11.3166 16.2929 11.7071C16.6534 12.0676 17.2206 12.0953 17.6129 11.7903L17.7071 11.7071L20 9.415V16C20 16.5523 20.4477 17 21 17Z" fill="white"/>
</svg>

<svg width="32" height="32" fill="none" xmlns="http://www.w3.org/2000/svg"><path opacity=".32" fill-rule="evenodd" clip-rule="evenodd" d="M26 0a6 6 0 0 1 6 6v20a6 6 0 0 1-6 6H6a6 6 0 0 1-6-6V6a6 6 0 0 1 6-6h20z" fill="#fff"/><path d="M11 15a1 1 0 0 1 .993.883L12 16v6.585l2.293-2.292a1 1 0 0 1 1.32-.083l.094.083a1 1 0 0 1 .083 1.32l-.083.094-4 4a.997.997 0 0 1-.09.08l.09-.08a1.012 1.012 0 0 1-.559.282A.952.952 0 0 1 11 26h-.032l-.054-.004L11 26a1.017 1.017 0 0 1-.52-.146 1.045 1.045 0 0 1-.187-.147l-4-4a1 1 0 0 1 1.32-1.497l.094.083L10 22.585V16a1 1 0 0 1 1-1zM21 17a1 1 0 0 0 .993-.883L22 16V9.415l2.293 2.292a1 1 0 0 0 1.32.083l.094-.083a1 1 0 0 0 .083-1.32l-.083-.094-4-4a1.012 1.012 0 0 0-.09-.08l.09.08a1.011 1.011 0 0 0-.559-.282A.945.945 0 0 0 21 6h-.032a.998.998 0 0 0-.054.004L21 6a1.009 1.009 0 0 0-.613.21 1.037 1.037 0 0 0-.094.083l-4 4a1 1 0 0 0 1.32 1.497l.094-.083L20 9.415V16a1 1 0 0 0 1 1z" fill="#fff"/></svg>
